X:581
T: SCHOEN IST DIE JUGEND
N: E0543A
O: Europa, Mitteleuropa, Deutschland, Thueringen, Meiningen
R: Liebes - Lied
M: 3/4
L: 1/8
K: E
EEG | B2GBec | B2G
BcB | A2FFBB | G2z
EEG | B2GBec | B2G
BcB | A2FFBB | G2z
GGB | AAFAAc | B2G
GGB | A2FFBB | G3

@@@ Tune index: 4231
